img/landing-nalog/icons/ellipse-top.svg

<svg width="167" height="32" viewBox="0 0 167 32" fill="none" xmlns="http://www.w3.org/2000/svg">
<path d="M1.70615 29.5955C1.48273 29.7577 1.43317 30.0704 1.59546 30.2938C1.75774 30.5173 2.07042 30.5668 2.29385 30.4045L1.70615 29.5955ZM165 30L162.603 24.7476L159.253 29.4496L165 30ZM2.29385 30.4045C3.13784 29.7915 3.98521 29.1877 4.83589 28.5933L4.26311 27.7736C3.40739 28.3715 2.55506 28.9788 1.70615 29.5955L2.29385 30.4045ZM10.018 25.1147C11.7752 23.9829 13.5456 22.8905 15.3287 21.8382L14.8205 20.977C13.026 22.036 11.2445 23.1352 9.47654 24.274L10.018 25.1147ZM20.7645 18.7764C22.6041 17.7891 24.4564 16.844 26.321 15.9419L25.8855 15.0417C24.0082 15.95 22.1433 16.9014 20.2916 17.8953L20.7645 18.7764ZM31.994 13.3467C33.9089 12.5207 35.8359 11.7397 37.7744 11.0043L37.4197 10.0693C35.4671 10.81 33.5263 11.5967 31.5979 12.4285L31.994 13.3467ZM43.6539 8.92653C45.6328 8.27813 47.6229 7.67706 49.6237 7.12412L49.3574 6.16024C47.3412 6.7174 45.3361 7.32301 43.3425 7.97624L43.6539 8.92653ZM55.6717 5.60738C57.6995 5.15037 59.7376 4.74256 61.7855 4.38476L61.6134 3.39968C59.5494 3.76029 57.4953 4.17129 55.4518 4.63185L55.6717 5.60738ZM67.9514 3.46299C70.0102 3.20691 72.0783 3.00123 74.1551 2.84676L74.0809 1.84952C71.9876 2.00521 69.9031 2.21252 67.828 2.47064L67.9514 3.46299ZM80.3822 2.53849C81.4195 2.51286 82.4588 2.5 83.5 2.5V1.5C82.4505 1.5 81.403 1.51296 80.3575 1.5388L80.3822 2.53849ZM83.5 2.5C84.5412 2.5 85.5805 2.51286 86.6178 2.53849L86.6425 1.5388C85.597 1.51296 84.5495 1.5 83.5 1.5V2.5ZM92.8449 2.84676C94.9217 3.00123 96.9898 3.20691 99.0486 3.46299L99.172 2.47064C97.0969 2.21252 95.0124 2.00521 92.9191 1.84952L92.8449 2.84676ZM105.215 4.38476C107.262 4.74256 109.301 5.15037 111.328 5.60738L111.548 4.63185C109.505 4.17129 107.451 3.76029 105.387 3.39968L105.215 4.38476ZM117.376 7.12411C119.377 7.67706 121.367 8.27813 123.346 8.92653L123.657 7.97624C121.664 7.32301 119.659 6.7174 117.643 6.16024L117.376 7.12411ZM129.226 11.0043C131.164 11.7397 133.091 12.5207 135.006 13.3467L135.402 12.4285C133.474 11.5967 131.533 10.81 129.58 10.0693L129.226 11.0043ZM140.679 15.9419C142.544 16.844 144.396 17.7891 146.236 18.7764L146.708 17.8953C144.857 16.9014 142.992 15.95 141.114 15.0417L140.679 15.9419ZM151.671 21.8382C153.454 22.8905 155.225 23.9829 156.982 25.1147L157.523 24.274C155.756 23.1352 153.974 22.036 152.179 20.977L151.671 21.8382ZM1.41231 29.1909C0.965464 29.5155 0.866342 30.1408 1.19091 30.5877C1.51549 31.0345 2.14085 31.1337 2.58769 30.8091L1.41231 29.1909ZM165 30L160.206 19.4951L153.506 28.8992L165 30ZM2.58769 30.8091C3.42924 30.1978 4.27412 29.5958 5.12228 29.0031L3.97672 27.3637C3.11848 27.9634 2.26366 28.5725 1.41231 29.1909L2.58769 30.8091ZM10.2888 25.535C12.0405 24.4067 13.8054 23.3177 15.5829 22.2688L14.5664 20.5464C12.7662 21.6087 10.9791 22.7114 9.20579 23.8536L10.2888 25.535ZM21.0009 19.217C22.8344 18.2329 24.6806 17.291 26.5388 16.392L25.6678 14.5916C23.784 15.503 21.913 16.4576 20.0551 17.4548L21.0009 19.217ZM32.192 13.8058C34.1002 12.9827 36.0202 12.2045 37.9517 11.4718L37.2424 9.60183C35.2827 10.3452 33.335 11.1346 31.3999 11.9694L32.192 13.8058ZM43.8096 9.40167C45.7811 8.75569 47.7637 8.15689 49.7569 7.60605L49.2242 5.67831C47.2004 6.23758 45.1878 6.84545 43.1869 7.5011L43.8096 9.40167ZM55.7816 6.09515C57.8015 5.63991 59.8317 5.23369 61.8715 4.87729L61.5273 2.90714C59.4553 3.26916 57.3933 3.68175 55.3419 4.14408L55.7816 6.09515ZM68.0131 3.95917C70.0638 3.7041 72.1236 3.49924 74.1922 3.34538L74.0438 1.35089C71.9423 1.5072 69.8496 1.71533 67.7663 1.97446L68.0131 3.95917ZM80.3946 3.03834C81.4277 3.01281 82.4629 3 83.5 3V1C82.4464 1 81.3948 1.01302 80.3452 1.03895L80.3946 3.03834ZM83.5 3C84.5371 3 85.5723 3.01281 86.6054 3.03834L86.6548 1.03895C85.6052 1.01302 84.5536 1 83.5 1V3ZM92.8078 3.34538C94.8764 3.49924 96.9362 3.7041 98.9869 3.95917L99.2337 1.97446C97.1504 1.71533 95.0577 1.5072 92.9562 1.35089L92.8078 3.34538ZM105.128 4.87729C107.168 5.23369 109.198 5.63991 111.218 6.09514L111.658 4.14408C109.607 3.68175 107.545 3.26916 105.473 2.90714L105.128 4.87729ZM117.243 7.60605C119.236 8.15689 121.219 8.75569 123.19 9.40167L123.813 7.5011C121.812 6.84545 119.8 6.23758 117.776 5.67831L117.243 7.60605ZM129.048 11.4718C130.98 12.2045 132.9 12.9827 134.808 13.8058L135.6 11.9694C133.665 11.1346 131.717 10.3452 129.758 9.60183L129.048 11.4718ZM140.461 16.392C142.319 17.291 144.166 18.2329 145.999 19.217L146.945 17.4548C145.087 16.4576 143.216 15.503 141.332 14.5916L140.461 16.392ZM151.417 22.2688C153.195 23.3177 154.959 24.4067 156.711 25.535L157.794 23.8536C156.021 22.7114 154.234 21.6087 152.434 20.5464L151.417 22.2688Z" fill="#007A65"/>
</svg>

<svg width="167" height="32" fill="none" xmlns="http://www.w3.org/2000/svg"><path d="M1.706 29.596a.5.5 0 10.588.808l-.588-.808zM165 30l-2.397-5.252-3.35 4.702L165 30zm-162.706.404a170.65 170.65 0 012.542-1.81l-.573-.82c-.856.598-1.708 1.205-2.557 1.822l.588.808zm7.724-5.29a159.747 159.747 0 015.31-3.276l-.508-.861a160.585 160.585 0 00-5.343 3.297l.541.84zm10.747-6.338c1.84-.987 3.691-1.932 5.556-2.834l-.436-.9c-1.877.908-3.742 1.86-5.593 2.853l.473.881zm11.229-5.43a139.697 139.697 0 015.78-2.342l-.354-.935a140.374 140.374 0 00-5.822 2.36l.396.918zm11.66-4.42a133.236 133.236 0 015.97-1.802l-.267-.964a133.61 133.61 0 00-6.014 1.816l.31.95zm12.018-3.319c2.028-.457 4.066-.864 6.114-1.222l-.173-.985c-2.064.36-4.118.771-6.161 1.232l.22.975zm12.28-2.144a125.93 125.93 0 016.203-.616l-.074-.997c-2.093.155-4.178.363-6.253.62l.123.993zm12.43-.925A126.22 126.22 0 0183.5 2.5v-1c-1.05 0-2.097.013-3.142.039l.024 1zM83.5 2.5c1.041 0 2.08.013 3.118.038l.025-1A127.181 127.181 0 0083.5 1.5v1zm9.345.347c2.077.154 4.145.36 6.204.616l.123-.992c-2.075-.258-4.16-.466-6.253-.621l-.074.997zm12.37 1.538c2.047.358 4.086.765 6.113 1.222l.22-.975c-2.043-.46-4.097-.872-6.161-1.232l-.172.985zm12.161 2.74c2.001.552 3.991 1.153 5.97 1.802l.311-.95a133.417 133.417 0 00-6.014-1.817l-.267.964zm11.85 3.88a140.02 140.02 0 015.78 2.342l.396-.918a140.22 140.22 0 00-5.822-2.36l-.354.935zm11.453 4.937c1.865.902 3.717 1.847 5.557 2.834l.472-.88a148.515 148.515 0 00-5.594-2.854l-.435.9zm10.992 5.896a159.656 159.656 0 015.311 3.277l.541-.841a159.097 159.097 0 00-5.344-3.297l-.508.861zM1.412 29.191a1 1 0 001.176 1.618l-1.176-1.618zM165 30l-4.794-10.505-6.7 9.404L165 30zm-162.412.81c.841-.612 1.686-1.214 2.534-1.807l-1.145-1.64c-.859.6-1.713 1.21-2.565 1.828l1.176 1.618zm7.7-5.275a159.018 159.018 0 015.295-3.266l-1.017-1.723a161.056 161.056 0 00-5.36 3.308l1.083 1.681zm10.713-6.318c1.833-.984 3.68-1.926 5.538-2.825l-.871-1.8a150.057 150.057 0 00-5.613 2.863l.946 1.762zm11.191-5.411a139.145 139.145 0 015.76-2.334l-.71-1.87c-1.96.743-3.907 1.533-5.842 2.367l.792 1.837zM43.81 9.402a132.167 132.167 0 015.947-1.796l-.533-1.928c-2.024.56-4.036 1.167-6.037 1.823l.623 1.9zm11.972-3.307c2.02-.455 4.05-.861 6.09-1.218l-.345-1.97c-2.072.362-4.134.775-6.185 1.237l.44 1.951zM68.013 3.96c2.05-.255 4.11-.46 6.18-.614l-.15-1.994c-2.1.156-4.193.364-6.277.623l.247 1.985zm12.382-.92C81.428 3.012 82.463 3 83.5 3V1c-1.054 0-2.105.013-3.155.039l.05 2zM83.5 3c1.037 0 2.072.013 3.105.038l.05-1.999C85.605 1.013 84.554 1 83.5 1v2zm9.308.345c2.068.154 4.128.36 6.179.614l.247-1.985a127.253 127.253 0 00-6.278-.623l-.148 1.994zm12.32 1.532c2.04.357 4.07.763 6.09 1.218l.44-1.95a129.424 129.424 0 00-6.185-1.238l-.345 1.97zm12.115 2.729c1.993.55 3.976 1.15 5.947 1.796l.623-1.9a134.034 134.034 0 00-6.037-1.824l-.533 1.928zm11.805 3.866a136.58 136.58 0 015.76 2.334l.792-1.837a141.295 141.295 0 00-5.842-2.367l-.71 1.87zm11.413 4.92a146.47 146.47 0 015.538 2.825l.946-1.762a149.991 149.991 0 00-5.613-2.863l-.871 1.8zm10.956 5.877a158.808 158.808 0 015.294 3.266l1.083-1.681a160.918 160.918 0 00-5.36-3.308l-1.017 1.723z" fill="#007A65"/></svg>
